X: 1
T: Bonaparte Crossing The Rhine
R: hornpipe
M: 4/4
L: 1/8
K: Ador
EG|A2 AB AGE2| cdec d2 eg|aged cded| cAGE G2 cB|
A2 AB AGE2| cdec d2 eg|aged cAGE| A2 A2 A2:|
eg|aged cdeg| agec d2 eg| aged cded|cAGE G2 EG|
A2 AB AGEG|cdec d2 eg|aged cABG|A2 (3cBG A2:|


Tune 7	Setting 12362

